img/icons/logo.svg

<svg width="31" height="31" viewBox="0 0 31 31" xmlns="http://www.w3.org/2000/svg">
  <g clip-path="url(#clip0)">
    <path d="M11.1701 19.6984L13.8456 16.8891L16.889 19.6984H22.1062L13.8121 11.5715L5.58496 19.6984H11.1701Z" />
    <path d="M18.8288 6.65531L14.8825 10.6686L17.4911 13.3441L18.8288 12.0063L26.153 19.297C24.4808 23.7451 20.2 26.9222 15.15 26.9222C8.66193 26.9222 3.41126 21.6716 3.41126 15.1835C3.44471 8.69538 8.69538 3.44471 15.1835 3.44471C20.9358 3.44471 25.7517 7.62518 26.7216 13.0765L30.2666 16.8222C30.3335 16.2871 30.3669 15.7186 30.3669 15.1835C30.3669 11.1368 28.7951 7.32418 25.9189 4.44802C23.0427 1.57186 19.2302 0 15.1835 0C11.1033 0 7.32418 1.57186 4.44802 4.44802C1.57186 7.32418 0 11.1033 0 15.1835C0 19.2636 1.57186 23.0427 4.44802 25.9189C7.32418 28.7951 11.1368 30.3669 15.1835 30.3669C19.2302 30.3669 23.0427 28.7951 25.9189 25.9189C27.6914 24.1464 28.9623 22.0394 29.6646 19.7318C29.7984 19.3305 29.8987 18.8957 29.9991 18.4944L26.9222 15.2504L18.8288 6.65531Z" />
  </g>
  <defs>
    <clipPath id="clip0">
      <rect width="30.3335" height="30.3335" />
    </clipPath>
  </defs>
</svg>

<svg width="31" height="31" xmlns="http://www.w3.org/2000/svg"><g clip-path="url(#clip0)"><path d="M11.17 19.698l2.676-2.809 3.043 2.81h5.217l-8.294-8.128-8.227 8.127h5.585z"/><path d="M18.829 6.655l-3.947 4.014 2.61 2.675 1.337-1.338 7.324 7.291c-1.672 4.448-5.953 7.625-11.003 7.625-6.488 0-11.739-5.25-11.739-11.739.034-6.488 5.284-11.738 11.773-11.738 5.752 0 10.568 4.18 11.538 9.631l3.545 3.746c.067-.535.1-1.103.1-1.638 0-4.047-1.572-7.86-4.448-10.736A15.078 15.078 0 0015.183 0c-4.08 0-7.859 1.572-10.735 4.448C1.572 7.324 0 11.103 0 15.184c0 4.08 1.572 7.859 4.448 10.735a15.078 15.078 0 0010.736 4.448c4.046 0 7.859-1.572 10.735-4.448 1.772-1.773 3.043-3.88 3.746-6.187.133-.401.234-.836.334-1.238l-3.077-3.244-8.093-8.595z"/></g><defs><clipPath id="clip0"><path d="M0 0h30.334v30.334H0z"/></clipPath></defs></svg>
